src/images/v2/storage.svg

<svg fill="none" height="28" viewBox="0 0 29 28" width="29" xmlns="http://www.w3.org/2000/svg"><g stroke="#12c3f4" stroke-miterlimit="2" stroke-width="2.81818"><path d="m4.81818 16.8889c1.55644 0 2.81818-1.212 2.81818-2.7071s-1.26174-2.7071-2.81818-2.7071-2.81818 1.212-2.81818 2.7071 1.26174 2.7071 2.81818 2.7071z" fill="#65f8c3"/><path d="m24.5457 7.41414c1.5565 0 2.8182-1.212 2.8182-2.70707s-1.2617-2.70707-2.8182-2.70707c-1.5564 0-2.8182 1.212-2.8182 2.70707s1.2618 2.70707 2.8182 2.70707z"/><path d="m24.5457 16.8889c1.5565 0 2.8182-1.212 2.8182-2.7071s-1.2617-2.7071-2.8182-2.7071c-1.5564 0-2.8182 1.212-2.8182 2.7071s1.2618 2.7071 2.8182 2.7071z"/><path d="m24.5457 26.3637c1.5565 0 2.8182-1.212 2.8182-2.7071s-1.2617-2.7071-2.8182-2.7071c-1.5564 0-2.8182 1.212-2.8182 2.7071s1.2618 2.7071 2.8182 2.7071z"/><g stroke-linecap="round" stroke-linejoin="round"><path d="m21.7275 23.6566h-8.4546v-18.94951h8.4546"/><path d="m7.63623 14.1818h14.09087"/></g></g></svg>

<svg width="29" height="28" viewBox="0 0 29 28" fill="none" xmlns="http://www.w3.org/2000/svg">
<path d="M4.81818 16.8889C6.37462 16.8889 7.63636 15.6769 7.63636 14.1818C7.63636 12.6867 6.37462 11.4747 4.81818 11.4747C3.26174 11.4747 2 12.6867 2 14.1818C2 15.6769 3.26174 16.8889 4.81818 16.8889Z" fill="#65F8C3" stroke="#12C3F4" stroke-width="2.81818" stroke-miterlimit="2"/>
<path d="M24.5457 7.41414C26.1022 7.41414 27.3639 6.20214 27.3639 4.70707C27.3639 3.212 26.1022 2 24.5457 2C22.9893 2 21.7275 3.212 21.7275 4.70707C21.7275 6.20214 22.9893 7.41414 24.5457 7.41414Z" stroke="#12C3F4" stroke-width="2.81818" stroke-miterlimit="2"/>
<path d="M24.5457 16.8889C26.1022 16.8889 27.3639 15.6769 27.3639 14.1818C27.3639 12.6867 26.1022 11.4747 24.5457 11.4747C22.9893 11.4747 21.7275 12.6867 21.7275 14.1818C21.7275 15.6769 22.9893 16.8889 24.5457 16.8889Z" stroke="#12C3F4" stroke-width="2.81818" stroke-miterlimit="2"/>
<path d="M24.5457 26.3637C26.1022 26.3637 27.3639 25.1517 27.3639 23.6566C27.3639 22.1615 26.1022 20.9495 24.5457 20.9495C22.9893 20.9495 21.7275 22.1615 21.7275 23.6566C21.7275 25.1517 22.9893 26.3637 24.5457 26.3637Z" stroke="#12C3F4" stroke-width="2.81818" stroke-miterlimit="2"/>
<path d="M21.7275 23.6566H13.2729V4.70709H21.7275" stroke="#12C3F4" stroke-width="2.81818" stroke-miterlimit="2" stroke-linecap="round" stroke-linejoin="round"/>
<path d="M7.63623 14.1818H21.7271" stroke="#12C3F4" stroke-width="2.81818" stroke-miterlimit="2" stroke-linecap="round" stroke-linejoin="round"/>
</svg>
